X:5
T:Polka  AbEb (5letras)  cf. FC oct
M:2/4
L:1/16
K:Abmaj%%MIDI gchordon 
CD |: "Ab"E2EA "Db"F2FA | "Ab"E2EC E2A2 | "Eb7"B2BE G2B2 | "Ab"c4 "Eb7"BAGF | "Ab"E2EA "Db"F2FA | 
"Ab"E2EC E2A2 | "Eb7"B2BE GBeG | "Ab"A2c2 A2z2 :: [K:Ebmaj] "Fm"AGFc "Bb7"Tc2B2 | "Eb"GFEc Tc2B2 | "Bb7"Bcde "Fm"A2A2 | 
"Eb"GA=AB E2EG | "Fm"AGFc "Bb7"Tc2B2 | "Eb"GFEc Tc2B2 | Bcde "Bb7"GA=AB | "Eb"E2G2 E2z2 :| 

